src/assets/Imgs/proposal/commentIcon.svg

<svg fill="none" height="44" viewBox="0 0 44 44" width="44" xmlns="http://www.w3.org/2000/svg"><rect fill="#f9b617" height="44" rx="8" width="44"/><path d="m31.4332 29.5176h-4.7906c-1.5338 1.4873-3.848 4.0988-4.0669 4.3464-.0123.014-.023.026-.0367.0384-.15.1356-.3777.1299-.5207-.0171-.0014-.0015-.0012-.0013-.0027-.0028-.0467-.0484-3.3828-3.5017-4.193-4.3649h-4.6807c-1.7356 0-3.1419-1.622-3.1419-3.3818v-11.949c0-1.7598 1.3756-3.1868 3.0718-3.1868h18.431c1.6967 0 3.0718 1.427 3.0718 3.1868v11.949c0 1.7595-1.4063 3.3818-3.1414 3.3818zm-15.2895-10.5795c-.8482 0-1.536.7135-1.536 1.5935 0 .8797.6878 1.5932 1.536 1.5932.8481 0 1.5359-.7135 1.5359-1.5932 0-.88-.6878-1.5935-1.5359-1.5935zm6.1436 0c-.8481 0-1.5359.7135-1.5359 1.5935 0 .8797.6883 1.5932 1.5359 1.5932.8481 0 1.5359-.7135 1.5359-1.5932 0-.88-.6878-1.5935-1.5359-1.5935zm6.1437 0c-.8477 0-1.536.7135-1.536 1.5935 0 .8797.6883 1.5932 1.536 1.5932.8486 0 1.5359-.7135 1.5359-1.5932 0-.88-.6873-1.5935-1.5359-1.5935z" fill="#fff"/></svg>

<svg width="44" height="44" viewBox="0 0 44 44" fill="none" xmlns="http://www.w3.org/2000/svg">
<rect width="44" height="44" rx="8" fill="#F9B617"/>
<path d="M31.4332 29.5176H26.6426C25.1088 31.0049 22.7946 33.6164 22.5757 33.864C22.5634 33.878 22.5527 33.89 22.539 33.9024C22.389 34.038 22.1613 34.0323 22.0183 33.8853C22.0169 33.8838 22.0171 33.884 22.0156 33.8825C21.9689 33.8341 18.6328 30.3808 17.8226 29.5176H13.1419C11.4063 29.5176 10 27.8956 10 26.1358V14.1868C10 12.427 11.3756 11 13.0718 11H31.5028C33.1995 11 34.5746 12.427 34.5746 14.1868V26.1358C34.5746 27.8953 33.1683 29.5176 31.4332 29.5176ZM16.1437 18.9381C15.2955 18.9381 14.6077 19.6516 14.6077 20.5316C14.6077 21.4113 15.2955 22.1248 16.1437 22.1248C16.9918 22.1248 17.6796 21.4113 17.6796 20.5316C17.6796 19.6516 16.9918 18.9381 16.1437 18.9381ZM22.2873 18.9381C21.4392 18.9381 20.7514 19.6516 20.7514 20.5316C20.7514 21.4113 21.4397 22.1248 22.2873 22.1248C23.1354 22.1248 23.8232 21.4113 23.8232 20.5316C23.8232 19.6516 23.1354 18.9381 22.2873 18.9381ZM28.431 18.9381C27.5833 18.9381 26.895 19.6516 26.895 20.5316C26.895 21.4113 27.5833 22.1248 28.431 22.1248C29.2796 22.1248 29.9669 21.4113 29.9669 20.5316C29.9669 19.6516 29.2796 18.9381 28.431 18.9381Z" fill="white"/>
</svg>
